X: 6498
T: Cat On The Stairs, The
R: hornpipe
M: 4/4
K: Edorian
B,EED EFGA|BAGB AGFD|B,EED EFGA|B2G2 G3 D|
B,EED EFGA|BAGB AGFD|edBe dBAF|1 G2 E2 E3 D:|2 G2 E2 E3z||
gfeg fedf|edBe dBAF|EFGA BAGB|A2 F2 F3 z|
gabg fgaf|edef edBA|gfe cdBAF|G2 E2 E4||
gfeg fedf|edBe dBAF|EFGA BAGB|A2 F2 F3 B,|
B,EED EFGA|BAGB AGFD|edBe dBAF|G2 E2 E4||

